X: 032240
T: Captain's Whiskers
S: Connacht Ceili Band (Boston mid-60's)
L: 1/8
M: 4/4
R: march
Q: 250
K: G
G>A | Bdg>f g2 fe | dBB>A B2 GA | Bdce dBAB | A2 A>B A2 GA |
Bdg>f g2 fe | dBB>A B2 GA | Bdce dBAF | G2 G>F G2 :|
f>g | afd>^c d2 ga | bge>d e2 ga | bgaf ged>B | A2 A>B A2 GA |
Bdg>f g2 fe | dBB>A B2 GA | Bdce dBAF | G2 G>F G2 :|
